packages/foundations/assets/icons/functional/images/maps/road_sign_20.svg

<svg width="20" height="20" viewBox="0 0 20 20" fill="none" xmlns="http://www.w3.org/2000/svg">
<g clip-path="url(#clip0_186_113)">
<path fill-rule="evenodd" clip-rule="evenodd" d="M13.3781 2C14.0031 2 14.7157 2.3125 15.0907 2.7812L17.1219 5.5938C17.4657 6 17.6219 6.5312 17.6219 7C17.6219 7.5 17.4657 7.9688 17.1219 8.4062L15.0881 11.1562C14.6505 11.7188 14.0907 12 13.3719 12H10.3781V16H13.3469C13.9093 16 14.3781 16.4375 14.3781 17C14.3781 17.5312 14.0031 18 13.3469 18H5.37811C4.84691 18 4.37811 17.5625 4.37811 17C4.37811 16.4375 4.81561 16 5.37811 16H8.37811V12H4.62811C3.37811 12 2.37811 11 2.37811 9.7812V4.2812C2.37811 3.0312 3.37811 2 4.62811 2H13.3781ZM13.3719 4H4.37811V10H13.3719L15.6219 7L13.3719 4Z" fill="#1A1C1F"/>
</g>
<defs>
<clipPath id="clip0_186_113">
<rect width="20" height="20" fill="white"/>
</clipPath>
</defs>
</svg>

<svg xmlns="http://www.w3.org/2000/svg" width="20" height="20" fill="none"><g clip-path="url(#a)"><path fill="#1A1C1F" fill-rule="evenodd" d="M13.378 2c.625 0 1.338.313 1.713.781l2.03 2.813c.345.406.5.937.5 1.406 0 .5-.155.969-.5 1.406l-2.033 2.75c-.437.563-.997.844-1.716.844h-2.994v4h2.969c.562 0 1.031.438 1.031 1 0 .531-.375 1-1.031 1H5.378c-.531 0-1-.437-1-1s.438-1 1-1h3v-4h-3.75c-1.25 0-2.25-1-2.25-2.219v-5.5c0-1.25 1-2.281 2.25-2.281zm-.006 2H4.378v6h8.994l2.25-3z" clip-rule="evenodd"/></g><defs><clipPath id="a"><path fill="#fff" d="M0 0h20v20H0z"/></clipPath></defs></svg>
